X: 1
T:Frazer's -- Jig
M:6/8
L:1/8
R:jig
B:Ryan's Mammoth Collection
Z:Contributed by Ray Davies, ray:davies99.freeserve.co.uk
K:D
"_f"u(d/B/)|"_p"AFD DFD|AFD D2 "_f"u(d/B/)|"_p"AFD DFD|GEE "_f" uE2 d/B/|
"_p"AFD DFD|AFA d2e|fed BdB|AFD D2::
"_f"uf/g/|afd dfd|afd d2 u(f/g/)|afd dfd|gee e2 u(f/g/)|
afd dfd|afd efg|fed BdB|AFD D2:|
